X:497
T:Whiskey Before Breakfast
C:Arr. Balsassari
N:Transcribed by Mike Stangeland
R:bluegrass
L:1/8
Q:1/4=210
M:4/4
K:C
|: "D"A,D DE D2 DE | ^FG AB AF D/E/F | "G"G2 BG "D"^F2 AF | "A"E2 E^F ED B,2 | 
"D"A,D DE D2 DE | ^FG AB AF D/E/F | "G"G2 BG "D"^F2 AF |1 "A"E/^F/E ^CE "D"D4 :|2 "A"E/^F/E ^CE "D"D2 DE | 
|: "D"^Fd dF [d2F2] [d2F2] | [d2^F2] dB AF D2 | "Em"[e2e2] [ee][ee] e2 e^f | "A"g^f ed ^cB A/B/c | 
"D"d2 ^fd ^c2 ec | "G"B2 B^c "D"B/c/B A^F | "G"G2 BG "D"^F2 AF |1 "A"E/^F/E ^CE "D"D2 DE :|2 "A"E/^F/E ^CE "D"D4 | 


